packages/calcite-ui-icons/icons/subheading-4-rtl-24.svg

<svg xmlns="http://www.w3.org/2000/svg" viewBox="0 0 24 24"><path d="M17 9H2V7h15v2zm5 4H2v1h20v-1zm0 4H2v1h20v-1zm0 4H2v1h20v-1zm0-18H2v1h20V3zm-1 3v2h-1V6h-1v3h2v2h1V6h-1z"/><path fill="none" d="M0 0h24v24H0z"/></svg>

<?xml version="1.0" encoding="UTF-8"?><svg id="icons" xmlns="http://www.w3.org/2000/svg" viewBox="0 0 24 24"><defs><style>.cls-1{fill:none;}</style></defs><rect class="cls-1" x="0" width="24" height="24" transform="translate(24 24) rotate(-180)"/><path d="M17,9H2v-2h15v2ZM22,13H2s0,1,0,1h20s0-1,0-1ZM22,17H2s0,1,0,1h20s0-1,0-1ZM22,21H2s0,1,0,1h20s0-1,0-1ZM22,3.00003H2s0,.99997,0,.99997h20s0-.99997,0-.99997ZM21,6v2h-1v-2h-1v3h2v2h1v-5h-1Z"/></svg>
